X:1
T:Title
%%score { ( 1 4 ) | ( 2 3 ) }
L:1/8
M:3/4
K:F
V:1 treble nm="Grand Piano"
V:4 treble 
V:2 bass 
V:3 bass 
V:1
 z2 z2[Q:1/4=160] C2 | A4 A2 | A2 G2 A2 | c6 | A4 F2 | F4 F2 | [EG]4 [EG]2 | A6 | z2 z2 C2 | %9
 A4 A2 | A2 G2 A2 | c6 | A4 A2 | G4 G2 | A4 =B2 | [Ec]6 | z2 z2 c2 | d4 d2 | G4 G2 | d6 | c4 G2 | %21
 G2 A2 G2 | G4 G2 | c6 | z2 z2 c2 | d4 d2 | c4 c2 | B6 | A4 [CA]2 | A2 z2 z2 | F4 E2 | F6 | %32
 z2 z2 C2 | A4 A2 | A2 G2 A2 | c6 | A4 F2 | F4 F2 | [EG]4 [EG]2 | A6 | z2 z2 C2 | A4 A2 | %42
 A2 G2 A2 | [Ac]6 | A4 A2 | G4 G2 | A4 =B2 |[M:9/8] [Ec]8- [Ec] |[M:2/2] z4 [Ec]4 | %49
 [B,FG]4 [B,EG]4 | [B,DG]4 .[CEA]4 |[M:6/4] [A,F]12 |] %52
V:2
 z2 z2 [F,A,]2 | [F,CF]4 [F,CF]2 | C2 z2 z2 | [F,A,F]6 | [F,CF]4 [F,A,]2 | [D,A,]4 [D,A,]2 | %6
 [C,C]4 [C,C]2 | [F,CF]6 | z2 z2 [F,A,]2 | [F,CF]4 [F,CF]2 | C2 z2[K:treble] z2 | [F,A,F]6 | %12
 [F,CF]4 [F,CF]2 | [G,CE]4 [G,CE]2 | [G,CG]4 [G,DF]2 | [C,C]6 | z2 z2[K:treble] [A,CF]2 | %17
 [B,CE]4 [B,CE]2 | [B,CE]4 [B,CE]2 | [G,B,E]6 | [A,CF]4 [B,CE]2 | [B,CE]4 [B,CE]2 | %22
 [G,B,D]4 [B,CE]2 | [A,CF]6 | z2 z2 [A,CF]2 | [B,CE]4 [B,CE]2 | [A,CF]4 [A,CF]2 | F2 z2 C2 | %28
 [F,CF]4 [A,,F,]2 | z2 G2 =B,,2 | [C,A,C]4 [C,G,C]2 | [F,A,C]6 | z2 z2 [F,A,]2 | [F,CF]4 [F,CF]2 | %34
 C2 z2 z2 | [F,A,F]6 | [F,CF]4 [F,A,]2 | [D,A,]4 [D,A,]2 | [C,C]4 [C,C]2 | [F,CF]6 | %40
 z2 z2 [F,A,]2 | [F,CF]4 [F,CF]2 | C2 z2 z2 | [F,A,]6 | [F,CF]4 [F,CF]2 | [G,CE]4 [G,CE]2 | %46
 [G,CG]4 [G,DF]2 |[M:9/8][K:bass] [C,C]8- [C,C] |[M:2/2] z4 [C,C]4 | C,4 C,4 | C,4 z2 B,2 | %51
[M:6/4] F,12 |] %52
V:3
 x6 | x6 | [F,F]2- [F,B,F]2 [F,CF]2 | x6 | x6 | x6 | x6 | x6 | x6 | x6 | %10
 [F,F]2- [F,B,F]2[K:treble] [F,CF]2 | x6 | x6 | x6 | x6 | x6 | x4[K:treble] x2 | x6 | x6 | x6 | %20
 x6 | x6 | x6 | x6 | x6 | x6 | x6 | [G,-D]4 G,2 | x6 | [B,,F,]4 z2 | x6 | x6 | x6 | x6 | %34
 [F,F]2- [F,B,F]2 [F,CF]2 | x6 | x6 | x6 | x6 | x6 | x6 | x6 | [F,F]2- [F,B,F]2 [F,CF]2 | x6 | x6 | %45
 x6 | x6 |[M:9/8][K:bass] x9 |[M:2/2] x8 | x8 | z4 C,4 |[M:6/4] x12 |] %52
V:4
 x6 | x6 | x6 | x6 | x6 | x6 | x6 | x6 | x6 | x6 | x6 | x6 | x6 | x6 | x6 | x6 | x6 | x6 | x6 | %19
 x6 | x6 | x6 | x6 | x6 | x6 | x6 | x6 | z2 G2 E2 | x6 | D4 [F,DF]2 | x6 | x6 | x6 | x6 | x6 | x6 | %36
 x6 | x6 | x6 | x6 | x6 | x6 | x6 | x6 | x6 | x6 | x6 |[M:9/8] x9 |[M:2/2] x8 | x8 | x8 | %51
[M:6/4] x12 |] %52

